logo/capacitorjs.svg

<?xml version="1.0" encoding="UTF-8"?>
<svg width="512px" height="98px" viewBox="0 0 512 98" version="1.1" xmlns="http://www.w3.org/2000/svg" xmlns:xlink="http://www.w3.org/1999/xlink" preserveAspectRatio="xMidYMid">
    <g>
        <path d="M265.149359,30.1428622 C279.03553,30.1428622 287.151949,40.9908825 287.151949,54.4719238 C287.151949,67.984254 279.03553,78.8008635 265.149359,78.8008635 C258.401524,78.8008635 253.479822,75.9462603 251.002311,72.7742984 L251.002311,93.4603175 L238.0288,93.4603175 L238.0288,31.221313 L249.991721,31.221313 L249.991721,36.8991492 C252.990578,32.6486959 258.401524,30.1428622 265.149359,30.1428622 Z M152.091225,17.0496 C170.03967,17.0496 179.130514,29.2346717 180.762006,39.8253917 L180.762006,39.8253917 L166.962794,39.8253917 C165.331302,33.4481879 159.433549,29.006913 151.974603,29.006913 C142.06781,29.006913 134.934756,36.8645689 134.934756,48.0247873 C134.934756,59.0709841 142.06781,66.9285587 151.974603,66.9285587 C159.433549,66.9285587 165.331302,62.4871619 166.962794,56.1099175 L166.962794,56.1099175 L180.762006,56.1099175 C179.130514,66.7010032 170.03967,78.8857905 152.091225,78.8857905 C134.258997,78.8857905 121.904762,65.1064889 121.904762,48.0247873 C121.904762,30.8289829 134.258997,17.0496 152.091225,17.0496 Z M205.209194,30.1428622 C211.956622,30.1428622 217.33506,32.6170006 220.366832,36.8991492 L220.366832,31.221313 L232.329752,31.221313 L232.329752,77.7224127 L220.366832,77.7224127 L220.366832,72.0444952 C217.367568,76.2949079 211.956622,78.8008635 205.209194,78.8008635 C191.323022,78.8008635 183.206197,67.9525587 183.206197,54.4719238 C183.206197,40.9591873 191.323022,30.1428622 205.209194,30.1428622 Z M312.224914,30.1428622 C318.972343,30.1428622 324.350781,32.6170006 327.382146,36.8991492 L327.382146,31.221313 L339.345067,31.221313 L339.345067,77.7224127 L327.382146,77.7224127 L327.382146,72.0444952 C324.383289,76.2949079 318.972343,78.8008635 312.224914,78.8008635 C298.338743,78.8008635 290.222324,67.9525587 290.222324,54.4719238 C290.222324,40.9591873 298.338743,30.1428622 312.224914,30.1428622 Z M367.01501,30.1428622 C381.878857,30.1428622 388.91967,40.3566121 389.83233,48.254781 L376.500419,48.254781 C375.489829,44.2579302 371.676241,41.3399365 366.917079,41.3399365 C359.974197,41.3399365 355.964749,46.6688 355.964749,54.4719238 C355.964749,62.2750476 359.974197,67.6039111 366.917079,67.6039111 C371.676241,67.6039111 375.489829,64.6855111 376.500419,60.6890667 L389.83233,60.6890667 C388.91967,68.5872762 381.878857,78.8008635 367.01501,78.8008635 C353.128838,78.8008635 343.023746,68.3333079 343.023746,54.4719238 C343.023746,40.6103365 353.128838,30.1428622 367.01501,30.1428622 Z M456.870603,30.1428622 C472.189968,30.1428622 481.970794,41.2448508 481.970794,54.4719238 C481.970794,67.6989968 472.189968,78.8008635 456.870603,78.8008635 C441.551238,78.8008635 431.770413,67.6989968 431.770413,54.4719238 C431.770413,41.2448508 441.551238,30.1428622 456.870603,30.1428622 Z M510.45181,30.746047 C510.902857,30.746047 512,30.8411733 512,30.8411733 L512,42.6727619 C512,42.6727619 510.646857,42.4187937 509.484698,42.4187937 C502.011937,42.4187937 498.110984,46.0665905 498.110984,54.5991111 L498.110984,77.7862095 L485.286603,77.7862095 L485.286603,31.1901054 L497.111365,31.1901054 L497.111365,37.216833 C498.818032,34.4572343 502.430476,30.746047 510.45181,30.746047 Z M423.952254,19.6468216 L423.952254,31.1927873 L433.928127,31.1927873 L433.928127,41.4699683 L423.952254,41.4699683 L423.952254,77.7573587 L410.981587,77.7573587 L410.981587,19.6468216 L423.952254,19.6468216 Z M405.180952,31.1905524 L405.180952,77.7232254 L392.207441,77.7232254 L392.207441,31.1905524 L405.180952,31.1905524 Z M207.947175,41.2448508 C200.743416,41.2448508 196.179708,46.9227683 196.179708,54.4719238 C196.179708,62.0210794 200.743416,67.6989968 207.947175,67.6989968 C215.15134,67.6989968 219.714814,62.0210794 219.714814,54.4719238 C219.747149,46.9227683 215.183848,41.2448508 207.947175,41.2448508 Z M262.410971,41.2448508 C255.207213,41.2448508 250.643332,46.9227683 250.643332,54.4719238 C250.610997,62.0210794 255.174705,67.6989968 262.410971,67.6989968 C269.615137,67.6989968 274.178438,62.0210794 274.178438,54.4719238 C274.178438,46.9227683 269.615137,41.2448508 262.410971,41.2448508 Z M314.962895,41.2448508 C307.759137,41.2448508 303.195835,46.9227683 303.195835,54.4719238 C303.195835,62.0210794 307.759137,67.6989968 314.962895,67.6989968 C322.16706,67.6989968 326.730534,62.0210794 326.730534,54.4719238 C326.76287,46.9227683 322.199568,41.2448508 314.962895,41.2448508 Z M456.870603,41.2448508 C450.023619,41.2448508 444.745143,46.1295746 444.745143,54.4719238 C444.745143,62.814273 450.023619,67.6989968 456.870603,67.6989968 C463.717587,67.6989968 468.996063,62.814273 468.996063,54.4719238 C468.996063,46.1295746 463.717587,41.2448508 456.870603,41.2448508 Z M398.693994,12.1904762 C403.257702,12.1904762 406.548317,15.394174 406.548317,19.8349206 C406.548317,24.2756673 403.257702,27.3841981 398.693994,27.3841981 C394.130692,27.3841981 390.838451,24.2756673 390.838451,19.8349206 C390.838451,15.394174 394.130692,12.1904762 398.693994,12.1904762 Z" fill="#000000"></path>
        <g>
            <polygon fill="#53B9FF" points="15.1857575 20.6150705 0.118321575 35.7015162 23.3547581 59.0075937 0 82.4324063 15.0202921 97.5254349 38.4221054 74.0941206 61.697219 97.358019 76.7646476 82.2714921"></polygon>
            <polygon fill="#119EFF" points="53.5304127 59.008 38.4226337 74.0941206 61.6976254 97.3584254 76.765054 82.2718984"></polygon>
            <polygon fill-opacity="0.2" fill="#000000" points="53.5304127 59.008 38.4226337 74.0941206 44.2384254 79.8776889"></polygon>
            <polygon fill="#53B9FF" points="74.1217524 38.4705422 97.5238095 15.0392279 82.4498794 0 59.0547302 23.3842184 35.7777473 0.118473549 20.7103187 15.2049371 82.2893714 76.8613587 97.3568 61.7748317"></polygon>
            <polygon fill="#119EFF" points="43.9466667 38.4711517 59.0547302 23.3847873 35.7777473 0.119047721 20.7103187 15.205506"></polygon>
            <polygon fill-opacity="0.2" fill="#000000" points="43.9462603 38.4706235 59.0543238 23.3842997 53.2370286 17.5991873"></polygon>
        </g>
    </g>
</svg>

<svg viewBox="0 0 512 98" xmlns="http://www.w3.org/2000/svg"><path d="M265.14 30.14c13.88 0 22 10.84 22 24.32 0 13.51-8.12 24.32-22.01 24.32 -6.75 0-11.67-2.86-14.15-6.03v20.68H238V31.19h11.96v5.67c2.99-4.26 8.4-6.76 15.15-6.76Zm-113.06-13.1c17.94 0 27.03 12.18 28.67 22.77v0h-13.8c-1.64-6.38-7.53-10.82-14.99-10.82 -9.91 0-17.04 7.85-17.04 19.01 0 11.04 7.13 18.9 17.03 18.9 7.45 0 13.35-4.45 14.98-10.82v0h13.79c-1.64 10.59-10.73 22.77-28.68 22.77 -17.84 0-30.19-13.78-30.19-30.87 0-17.2 12.35-30.98 30.18-30.98Zm53.11 13.09c6.74 0 12.12 2.47 15.15 6.75V31.2h11.96v46.5h-11.97v-5.68c-3 4.25-8.42 6.75-15.16 6.75 -13.89 0-22.01-10.85-22.01-24.33 0-13.52 8.11-24.33 22-24.33Zm107.01 0c6.74 0 12.12 2.47 15.15 6.75V31.2h11.96v46.5h-11.97v-5.68c-3 4.25-8.41 6.75-15.16 6.75 -13.89 0-22.01-10.85-22.01-24.33 0-13.52 8.11-24.33 22-24.33Zm54.79 0c14.86 0 21.9 10.21 22.81 18.11h-13.34c-1.02-4-4.83-6.92-9.59-6.92 -6.95 0-10.96 5.32-10.96 13.13 0 7.8 4 13.13 10.95 13.13 4.75 0 8.57-2.92 9.58-6.92h13.33c-.92 7.89-7.96 18.11-22.82 18.11 -13.89 0-24-10.47-24-24.33 0-13.87 10.1-24.33 23.99-24.33Zm89.85 0c15.31 0 25.1 11.1 25.1 24.32s-9.79 24.32-25.11 24.32 -25.11-11.11-25.11-24.33c0-13.23 9.78-24.33 25.1-24.33Zm53.58.6c.45 0 1.54.09 1.54.09v11.83s-1.36-.26-2.52-.26c-7.48 0-11.38 3.64-11.38 12.18v23.18h-12.83v-46.6h11.82v6.02c1.7-2.76 5.31-6.48 13.34-6.48Zm-86.5-11.1v11.54h9.97v10.27h-9.98v36.28h-12.98V19.6h12.97Zm-18.78 11.54V77.7h-12.98V31.16h12.97ZM207.9 41.22c-7.21 0-11.77 5.67-11.77 13.22 0 7.54 4.56 13.22 11.76 13.22s11.76-5.68 11.76-13.23c.03-7.55-4.54-13.23-11.77-13.23Zm54.46 0c-7.21 0-11.77 5.67-11.77 13.22 -.04 7.54 4.53 13.22 11.76 13.22 7.2 0 11.76-5.68 11.76-13.23 0-7.55-4.57-13.23-11.77-13.23Zm52.55 0c-7.21 0-11.77 5.67-11.77 13.22 0 7.54 4.56 13.22 11.76 13.22s11.76-5.68 11.76-13.23c.03-7.55-4.54-13.23-11.77-13.23Zm141.9 0c-6.85 0-12.13 4.88-12.13 13.22s5.27 13.22 12.12 13.22c6.84 0 12.12-4.89 12.12-13.23 0-8.35-5.28-13.23-12.13-13.23Zm-58.18-29.06c4.56 0 7.85 3.2 7.85 7.64 0 4.44-3.3 7.54-7.86 7.54 -4.57 0-7.86-3.11-7.86-7.55 0-4.45 3.29-7.65 7.85-7.65Z"/><path fill="#53B9FF" d="M15.18 20.61L.11 35.69l23.23 23.3L-.02 82.41 15 97.5l23.4-23.44 23.27 23.26 15.06-15.09Z"/><path fill="#119EFF" d="M53.53 59L38.42 74.08l23.27 23.26 15.06-15.09Z"/><path fill-opacity=".2" d="M53.53 59L38.42 74.08l5.81 5.78Z"/><path fill="#53B9FF" d="M74.12 38.47l23.4-23.44L82.44-.01l-23.4 23.38L35.76.1 20.69 15.18l61.57 61.65 15.06-15.09Z"/><path fill="#119EFF" d="M43.94 38.47l15.1-15.09L35.76.11 20.69 15.19Z"/><path fill-opacity=".2" d="M43.94 38.47l15.1-15.09 -5.82-5.79Z"/></svg>
